X: 33109
T: Prince Of Wales, The
R: jig
M: 6/8
K: Amajor
|:Acea3|fga edc|def edc|dBB B2c|
Ace a3|fga edc|def efd|1 cAA A2B:|2 CAA A2f||
|:ecA EAA|cBA ABc|def edc|dBB B2f|
[1 ecA EAA|cBA ABc|def efd|CAA A2f:|
[2 agf gfe|fed edc|def efd|cAA A3||

